X:1
T:Title
%%score { ( 1 3 4 ) | ( 2 5 ) }
L:1/8
M:3/4
K:Bb
V:1 treble nm="Grand Piano"
V:3 treble 
V:4 treble 
V:2 bass 
V:5 bass 
V:1
 z2 z2[Q:1/4=100] D>E | z2 z d cd | B2 F2 A>B | c4 z2 | d4 z2 | z2 z d cB | c2 G2 A>B | A4 z2 | %8
 F2 z2 FF | [Ae]2 c2 FF | [Fd]2 [FB]2 [B,D]>E | z2 z B [FA]B | [Fc]4 z2 | [Bf]2 [Bd]2 [DB]B | %14
 [Ge]2 G2 GG | [DF]B [Fd]2 [Fc]2 |[M:2/4] [B,DB]4 |[M:1/4] c>c |[M:3/4] c3 F Bc | %19
 d3 [Af] [Af][Ae] |[M:13/16] [Fc][FB][DF]Bd3/2c |[M:2/4] [DB]4 |] %22
V:2
 z6 | B,,2 [D,F,]2 [D,F,B,]2 | B,,2 [D,F,B,]2 [D,F,B,]2 | F,2 [A,C]2 [A,CE]2 | %4
 B,,2 [D,F,]2 [D,F,B,]2 | D,2 [D,F,]2 [D,F,B,]2 | E,2 [G,B,E]2 [G,B,E]2 | F,2 [A,C]2 [A,CE]2 | %8
 [F,A,CE]2 z2 z2 | F,2[K:treble] [A,CEA]2 [A,CE]2 | B,,2 [D,F,B,]2 z z/ C/ | %11
 B,,2 z[K:treble] F z F | F,2 A,2 z[K:treble] B | B,,2 [D,F,B,]2 z D | E,2 [G,B,E]2 EE | %15
 z F [D,F,B,]2 [F,A,C]2 |[M:2/4] [B,,D,F,]4 |[M:1/4] [F,A,F]>[F,A,F] | %18
[M:3/4] [F,A,F]3 [F,C][K:treble] [F,DF][F,EF] | [DB]3[K:bass] [F,C] [F,C][F,C] | %20
[M:13/16] [F,C][D,B,][B,,B,][F,B,D][F,DF]3/2[F,CE] |[M:2/4] [B,,B,]4 |] %22
V:3
 x6 | F4 z2 | x6 | z2 z F FF | z2 B,2 D>E | F4 z2 | x6 | z2 z G GF | x6 | x6 | x6 | [DF]4 z2 | %12
 z2 [CE]2 [Bd]d | x6 | x6 | x6 |[M:2/4] x4 |[M:1/4] x2 |[M:3/4] x6 | x6 |[M:13/16] x13/2 | %21
[M:2/4] x4 |] %22
V:4
 x6 | z2 B,2 z2 | x6 | z2 E2 z2 | x6 | z2 B,2 z2 | x6 | z2 E2 z2 | x6 | x6 | x6 | z2 [F,B,]2 z2 | %12
 x6 | x6 | x6 | x6 |[M:2/4] x4 |[M:1/4] x2 |[M:3/4] x6 | x6 |[M:13/16] x13/2 |[M:2/4] x4 |] %22
V:5
 x6 | x6 | x6 | x6 | x6 | x6 | x6 | x6 | x6 | x2[K:treble] x4 | z2 z2 [D,F,]2 | %11
 z2 D,2[K:treble] [D,F,B,]2 | z2 z2 [F,B,D]2[K:treble] | z2 z2 [D,F,B,]2 | z2 z2 [G,B,]2 | %15
 B,,2 z2 z2 |[M:2/4] x4 |[M:1/4] x2 |[M:3/4] x4[K:treble] x2 | x3[K:bass] x3 |[M:13/16] x13/2 | %21
[M:2/4] x4 |] %22

